src/public/images/news-right-side-letter.svg

<svg width="22" height="16" viewBox="0 0 22 16" fill="none" xmlns="http://www.w3.org/2000/svg">
<path fill-rule="evenodd" clip-rule="evenodd" d="M5.38558 4.5699C5.62311 4.23057 6.09076 4.14804 6.4301 4.38558L11 7.58451L15.5699 4.38558C15.9092 4.14804 16.3769 4.23057 16.6144 4.5699C16.852 4.90924 16.7694 5.37689 16.4301 5.61442L11.4301 9.11442C11.1719 9.29519 10.8281 9.29519 10.5699 9.11442L5.5699 5.61442C5.23057 5.37689 5.14804 4.90924 5.38558 4.5699Z" fill="white"/>
<path fill-rule="evenodd" clip-rule="evenodd" d="M3 1.75C2.30964 1.75 1.75 2.30964 1.75 3V13C1.75 13.6904 2.30964 14.25 3 14.25H19C19.6904 14.25 20.25 13.6904 20.25 13V3C20.25 2.30964 19.6904 1.75 19 1.75H3ZM0.25 3C0.25 1.48122 1.48122 0.25 3 0.25H19C20.5188 0.25 21.75 1.48122 21.75 3V13C21.75 14.5188 20.5188 15.75 19 15.75H3C1.48122 15.75 0.25 14.5188 0.25 13V3Z" fill="white"/>
</svg>

<svg xmlns="http://www.w3.org/2000/svg" width="22" height="16" fill="none"><path fill="#fff" fill-rule="evenodd" d="M5.386 4.57a.75.75 0 0 1 1.044-.184L11 7.585l4.57-3.2a.75.75 0 1 1 .86 1.23l-5 3.5a.75.75 0 0 1-.86 0l-5-3.5a.75.75 0 0 1-.184-1.045Z" clip-rule="evenodd"/><path fill="#fff" fill-rule="evenodd" d="M3 1.75c-.69 0-1.25.56-1.25 1.25v10c0 .69.56 1.25 1.25 1.25h16c.69 0 1.25-.56 1.25-1.25V3c0-.69-.56-1.25-1.25-1.25H3ZM.25 3A2.75 2.75 0 0 1 3 .25h16A2.75 2.75 0 0 1 21.75 3v10A2.75 2.75 0 0 1 19 15.75H3A2.75 2.75 0 0 1 .25 13V3Z" clip-rule="evenodd"/></svg>
